assets/netcup/mono.svg

<svg viewBox="0 0 24 24" xmlns="http://www.w3.org/2000/svg"><path d="m5.25 0a5.239 5.239 0 0 0 -5.25 5.25v13.5a5.239 5.239 0 0 0 5.25 5.25h13.5a5.239 5.239 0 0 0 5.25-5.25v-13.5a5.239 5.239 0 0 0 -5.25-5.25zm-.045 5.102h9.482c1.745 0 2.631.907 2.631 2.753v8.352h1.477v2.691h-4.666v-10.318c0-.514-.298-.785-.889-.785h-3.367v11.103h-3.191v-11.103h-1.477z"/></svg>

<svg xmlns="http://www.w3.org/2000/svg" viewBox="0 0 24 24"><path d="M5.25 0A5.24 5.24 0 0 0 0 5.25v13.5A5.24 5.24 0 0 0 5.25 24h13.5A5.24 5.24 0 0 0 24 18.75V5.25A5.24 5.24 0 0 0 18.75 0zm-.045 5.102h9.482c1.745 0 2.631.907 2.631 2.753v8.352h1.477v2.691h-4.666V8.58c0-.514-.298-.785-.889-.785H9.873v11.103H6.682V7.795H5.205z"/></svg>
